assets/static/svgs/currencies/icon-danish-krone.svg

<svg width="1em" height="1em"  viewBox="0 0 24 24" fill="none" xmlns="http://www.w3.org/2000/svg">
<symbol id="item"
width="1em"
height="1em"
viewBox="0 0 24 24"
fill="none"
>
 <path d="M12 24C18.6274 24 24 18.6274 24 12C24 5.37258 18.6274 0 12 0C5.37258 0 0 5.37258 0 12C0 18.6274 5.37258 24 12 24Z" fill="#E52931"/> <path d="M8.80005 17.5998V9.2998H10.4V13.6998L12.3 11.5998H14.3L12.2 13.7998L14.4 17.5998H12.7L11.2 14.8998L10.5 15.6998V17.5998H8.80005Z" fill="#F9F7F7"/> <path d="M16.9 17.5998H15.3V11.5998H16.8V12.4998C17.1 12.0998 17.3 11.7998 17.5 11.6998C17.7 11.5998 17.9 11.4998 18.2 11.4998C18.6 11.4998 18.9 11.5998 19.3 11.7998L18.8 13.1998C18.5 12.9998 18.3 12.8998 18 12.8998C17.8 12.8998 17.6 12.9998 17.4 13.0998C17.2 13.1998 17.1 13.3998 17 13.7998C16.9 14.0998 16.9 14.7998 16.9 15.7998V17.5998Z" fill="#F9F7F7"/> <mask id="mask0" mask-type="alpha" maskUnits="userSpaceOnUse" x="0" y="0" width="24" height="24"> <path d="M12 24C18.6274 24 24 18.6274 24 12C24 5.37258 18.6274 0 12 0C5.37258 0 0 5.37258 0 12C0 18.6274 5.37258 24 12 24Z" fill="#274DD4"/> </mask> <g mask="url(#mask0)"> <path d="M0 5H24V7H0V5Z" fill="var(--color--bulma-100)"/> <path d="M7 -1L7 25H5L5 -1L7 -1Z" fill="var(--color--bulma-100)"/> </g> 
</symbol>
</svg>

<svg width="1em" height="1em"    viewBox="0 0 24 24" fill="none" xmlns="http://www.w3.org/2000/svg">
<symbol id="item"
width="1em"
height="1em"
viewBox="0 0 24 24"
fill="none"
>
<path d="M12 24c6.627 0 12-5.373 12-12S18.627 0 12 0 0 5.373 0 12s5.373 12 12 12Z" fill="#E52931"/><path d="M8.8 17.6V9.3h1.6v4.4l1.9-2.1h2l-2.1 2.2 2.2 3.8h-1.7l-1.5-2.7-.7.8v1.9H8.8ZM16.9 17.6h-1.6v-6h1.5v.9c.3-.4.5-.7.7-.8.2-.1.4-.2.7-.2.4 0 .7.1 1.1.3l-.5 1.4c-.3-.2-.5-.3-.8-.3-.2 0-.4.1-.6.2-.2.1-.3.3-.4.7-.1.3-.1 1-.1 2v1.8Z" fill="#F9F7F7"/><mask id="a" mask-type="alpha" maskUnits="userSpaceOnUse" x="0" y="0" width="24" height="24"><path d="M12 24c6.627 0 12-5.373 12-12S18.627 0 12 0 0 5.373 0 12s5.373 12 12 12Z" fill="#274DD4"/></mask><g mask="url(#a)" fill="var(--color--bulma-100)"><path d="M0 5h24v2H0V5Z"/><path d="M7-1v26H5V-1h2Z"/></g>
</symbol>
</svg>
